X:8
T:Canan nan Gaidheal
Z:Jack Campin, http://www.campin.me.uk/
F:Jack Campin's Nine-Note Tunebook
% last edit 03-02-2013
M:12/8
L:1/8
Q:3/8=54
K:DDor
  D/D/|DAG  ADF  E/D/C2- C2 D/E/|AAG  E>DC D3- D2
  A/A/|A>Bc B>AG A3-     A2 A/A/|A>Bc B>AG A3- A2
  G   |A>DD E>DC C3-     C2 G   |A>AG E>DC D3- D2
|:c   |d<dc ADF  E/D/C2- C2 D/E/|AAG  E>DC D3- D2:|


% == Scottish Highland instrumental tunes ===================================

